icons/health_literacy.svg

<svg width="48" height="48" viewBox="0 0 48 48" fill="none" xmlns="http://www.w3.org/2000/svg">
<path d="M33 15C33 14.4477 32.5523 14 32 14C31.4477 14 31 14.4477 31 15V17.7336C30.0843 18.0636 29.1301 18.5184 28.0218 19.1218C27.5368 19.3858 27.3576 19.9931 27.6217 20.4782C27.8858 20.9632 28.4931 21.1424 28.9782 20.8783C29.7414 20.4628 30.3995 20.137 31 19.882V23C31 23.5523 31.4477 24 32 24C32.5523 24 33 23.5523 33 23V19.2354C33.8839 19.0482 34.8057 18.9862 35.9862 19.0025C36.5384 19.0101 36.9923 18.5686 36.9999 18.0164C37.0075 17.4642 36.566 17.0103 36.0138 17.0027C34.9055 16.9874 33.9427 17.0353 33 17.199V15Z" fill="black"/>
<path d="M19.1421 28.9338C16.0447 27.7466 14.4259 27.4716 11.5097 27.5L11.4903 25.5001C14.6697 25.4692 16.5375 25.7936 19.8579 27.0663L19.1421 28.9338Z" fill="black"/>
<path d="M11.5097 22.5C14.4259 22.4716 16.0447 22.7466 19.1421 23.9338L19.8579 22.0663C16.5375 20.7936 14.6697 20.4692 11.4903 20.5001L11.5097 22.5Z" fill="black"/>
<path d="M19.1421 18.9338C16.0447 17.7466 14.4259 17.4716 11.5097 17.5L11.4903 15.5001C14.6697 15.4692 16.5375 15.7936 19.8579 17.0663L19.1421 18.9338Z" fill="black"/>
<path fill-rule="evenodd" clip-rule="evenodd" d="M24 11.2401C24.0863 11.2217 24.1723 11.2035 24.2579 11.1855C29.2537 8.7786 33.559 7.04884 39.5261 8.57671C40.4175 8.80494 41 9.61248 41 10.492V10.7733C41.7202 10.9178 42.4658 11.0833 43.2434 11.2707C43.6888 11.378 44 11.7783 44 12.2364V37.7749C44 38.4077 43.4173 38.8804 42.7957 38.7618C36.5832 37.5766 32.3951 37.4936 26.6742 38.3611C26.1781 39.3339 25.1669 40 24 40C22.8331 40 21.8219 39.3339 21.3258 38.3611C15.6049 37.4936 11.4168 37.5766 5.20425 38.7618C4.58268 38.8804 4 38.4077 4 37.7749V12.2364C4 11.7783 4.31119 11.378 4.75659 11.2707C5.53424 11.0833 6.27982 10.9178 7 10.7733V10.492C7 9.61248 7.58253 8.80494 8.47389 8.57671C14.441 7.04884 18.7464 8.77861 23.7421 11.1855C23.8277 11.2035 23.9136 11.2217 24 11.2401ZM25 13.0471C29.9792 10.6426 33.7339 9.16738 39 10.5065V33.0552C39 33.0552 38.9967 33.0602 38.9925 33.0635C38.9782 33.075 38.9597 33.0801 38.9396 33.0764C34.0407 32.1775 30.259 33.1127 26.1446 34.9023C25.8272 34.5778 25.4368 34.3251 25 34.1707V13.0471ZM23 13.0481L23 34.1707C22.5632 34.3251 22.1728 34.5778 21.8554 34.9023C17.741 33.1127 13.9593 32.1775 9.06045 33.0764C9.04034 33.0801 9.02183 33.075 9.00746 33.0635L9.00594 33.0622C9.00252 33.059 9 33.0552 9 33.0552V10.5065C14.2661 9.16738 18.0208 10.6436 23 13.0481ZM42 13.0333C41.6604 12.9558 41.3273 12.883 41 12.8146V33.0552C41 34.3654 39.7896 35.2657 38.5786 35.0435C34.8028 34.3507 31.7784 34.8512 28.5061 36.0963C33.0792 35.5628 36.9344 35.6943 42 36.5827V13.0333ZM19.4939 36.0963C16.2217 34.8512 13.1972 34.3507 9.42139 35.0435C8.2104 35.2657 7 34.3654 7 33.0552V12.8146C6.67271 12.883 6.33962 12.9558 6 13.0333V36.5827C11.0656 35.6943 14.9209 35.5628 19.4939 36.0963Z" fill="black"/>
</svg>

<svg
  xmlns="http://www.w3.org/2000/svg"
  width="24"
  height="24"
  viewBox="0 0 24 24"
  fill="none"
  stroke="currentColor"
  stroke-width="2"
  stroke-linecap="round"
  stroke-linejoin="round"
>
  <path d="M33 15a1 1 0 1 0-2 0v2.734c-.916.33-1.87.784-2.978 1.388a1 1 0 1 0 .956 1.756A23 23 0 0 1 31 19.882V23a1 1 0 1 0 2 0v-3.765c.884-.187 1.806-.249 2.986-.232a1 1 0 0 0 .028-2c-1.108-.016-2.071.032-3.014.196z" />
  <path d="M19.142 28.934c-3.097-1.187-4.716-1.462-7.632-1.434l-.02-2c3.18-.03 5.048.294 8.368 1.566z" />
  <path d="M11.51 22.5c2.916-.028 4.535.247 7.632 1.434l.716-1.868c-3.32-1.272-5.188-1.597-8.368-1.566z" />
  <path d="M19.142 18.934c-3.097-1.187-4.716-1.462-7.632-1.434l-.02-2c3.18-.03 5.048.294 8.368 1.566z" />
  <path
    fill-rule="evenodd"
    d="m24 11.24.258-.055c4.996-2.406 9.301-4.136 15.268-2.608A1.97 1.97 0 0 1 41 10.492v.281q1.079.217 2.243.498a.99.99 0 0 1 .757.965v25.539c0 .633-.583 1.105-1.204.987-6.213-1.185-10.4-1.268-16.122-.4a3 3 0 0 1-5.348 0c-5.721-.868-9.91-.785-16.122.4A1.01 1.01 0 0 1 4 37.775V12.236c0-.458.311-.858.757-.965A60 60 0 0 1 7 10.773v-.281c0-.88.583-1.687 1.474-1.915 5.967-1.528 10.272.202 15.268 2.608zm1 1.807c4.98-2.404 8.734-3.88 14-2.54v22.548q0 .002-.008.008a.06.06 0 0 1-.052.013c-4.9-.898-8.681.037-12.795 1.826A3 3 0 0 0 25 34.171zm-2 .001v21.123a3 3 0 0 0-1.145.731c-4.114-1.79-7.896-2.724-12.795-1.826a.06.06 0 0 1-.053-.013h-.001L9 33.054V10.507c5.266-1.34 9.02.137 14 2.541m19-.015q-.51-.116-1-.218v20.24c0 1.31-1.21 2.21-2.421 1.989-3.776-.693-6.8-.193-10.073 1.052 4.573-.533 8.428-.402 13.494.487zM19.494 36.096c-3.272-1.245-6.297-1.745-10.073-1.052C8.211 35.266 7 34.365 7 33.055v-20.24q-.49.102-1 .218v23.55c5.066-.889 8.92-1.02 13.494-.487"
    clip-rule="evenodd"
  />
</svg>
